X: 25
T: Bromley Bells
%%VWML:Thompsons1774-3047-p13-0
F:http://www.vwml.org/record/Thompsons1774/3047/p13
M: C|
L: 1/8
Z: 2011 John Chambers <jc:trillian.mit.edu>
B: Charles & Samuel Thompson eds "Twenty Four Country Dances", London 1774, p.13 #1 
K: F
%-------------------------
|: AcTc2 dBGB | cbge (f/e/f/g/) af | AcTc2 dBGf | ecd=B c2C2 :|
|: g2ec a2fc | BGbg fed^c | dAfd gebg | fed^c d2DA/B/ |
cAaf dBbg | afef (g/f/e/d/) c2 | dfBd cegb | afce f2F2 :|
% - - - - - - - - Dance description - - - - - - - -
%%begintext align
%% Right hands across .|. Left hands back again :|.
%% cast off 1 Cu. & turn 2d Cu. do the same .|: lead
%% down 2 Cu. up 1 & Right & Left :|:
%%endtext
T: the Rainbow 
R: reel
M: C|
L: 1/8
Z: 2011 John Chambers <jc:trillian.mit.edu>
B: Charles & Samuel Thompson eds "Twenty Four Country Dances", London 1774, p.13 #2 
K: G
%-------------------------
|: g2dB c(f/g/) ac | BGTG2 AFDd | g2dB c(f/g/) ac | BedF G2G,2 :|
|: d2ef g3b | (af).e.d (^ce).c.A | (af).d.A (ge).^c.A | Bd^ce d2D2 |
dedB cfa2 | cdcA Bdg2 | egce dgAe | dcBA G2G,2 :|
%-------------------------
%%begintext align
%% Set & change sides .|. back again :|. hands six
%% half round & back again .|: lead down one Cu.
%% Right & Left at top :|:
%%endtext
